X: 8
T: Honeysuckle Schottishe
I: Honeysuckle Schottishe	M-5	F	schottishe
C: M-5
M: C|
Z: Transcribed to abc by Mary Lou Knack
R: schottishe
K: F
=B,2| C>D (3FAc f2f2| e>fe>f d2=B,2| C>D (3EFG e2e2| d>ed>A c>d (3cAF|
      C>D (3FAc f2f2| e>fe>f d2=B,2| C>D (3EFG e2d2|\
       |1 (3cdc (3BAG F2 :|2 (3cdc (3BAG F>F|]
\
G>^G| A2A2 B2=B2| c6 A>_B| c2=B>c d>c_B>A| G6 C2|
      G2G2 A2B2| d6 c/=Bc/| b>ge>c =B>cd>c| A>d^c>d (3=cdc|
(3AFD| A2A2 B2=B2| c6 A>_B| c2=B>c d>c_B>A |G6 C2|
      G2G2 A2B2| d6 c/=Bc/| b>ge>c _B/cB/ A>G| F6 |]


% ---------- page 5 ----------
#include "RightHeader.h"
%%footer 09/01/98 For use only by Roaring Jelly members

